X:4
T:J'ai passe devant ta porte in C (from Larry Miller)
R:waltz
M:6/4
L:1/4
K:C
GF|:E2G, C2D|E4 FE | D2B,B,2C | D4 GF|E2C FFG|A4 GF |E2E D2D |C4 GF:|[M:3/4]"Bass Exercise"[D2d2][B,B]|[D2d2][B,B]|[E2e2][G,G]|[E2e2][G,G]:|
